X: 09095
T: RICH'S DAUGHTER
C: Bob McQuillen 15 Oct 92
B: Bob's Note Book 9 #95
%R: reel
Z: 2018 John Chambers <jc:trillian.mit.edu>
L: 1/8
M: C
K: C
CD |\
E2GE FAGF | EGce g2ge | fagf ecGE | F2D2 D2CD |
E2GE FAGF | EGce gage | fedc Bdgf | e2c2 c2 :|
:| cA |\
GEAE GAde | ecAc G2GF | ECEG cegf | e2d2 d2cA |
GEAE GAcd | ecAc dcBA | Gceg fdBc | d2c2 c2 :|
%%begintext align
%% ERIKA CASTNER, THIS IS
%% YOUR TUNE!! There now, aren't you surprised? Well, I
%% hope so, anyway. At a Ralph Page week-end a while back, your
%% dad told me what a nice daughter he had, and so here's a
%% little present for you, from him and me. I hope you
%% like it, Erika!
%%endtext
